!!!OTL: MIT LUST THAET ICH AUSREITEN
!!!ARE: Europa, Mitteleuropa, Deutschland
!!!SCT: E0418
!!!YEM: Copyright 1995, estate of Helmut Schaffrath.
**kern
*ICvox
*Ivox
*M4/4
*k[f#]
*G:
{4g
=1
4g
4g
4g
4g
=2
2a
2a}
=3
{2dd
4dd
4a
=4
4dd
2cc
4b-
=5
2a
4r}
{4dd
=6
4dd
4dd
4dd
4dd
=7
4cc
2a}
{4b-
=8
2g
4a
[4cc
=9
8cc]
8b-
8a
8g
2a
=10
2g}
{2dd
=11
4ffn
4.dd
8b-
4cc
=12
4a
2g}
==
!!!AGN: Liebes - Lied
!!!ONB: ESAC (Essen Associative Code) Database: ERK1
!!!AMT: simple quadruple
!!!AIN: vox
!!!EED: Helmut Schaffrath
!!!EEV: 1.0
*-
